X: 128
T: Ashokan's Farewell
C:Jay Ungar
M:3/4
R: waltz
K:D
Ac|"D"d3 c BA|F4 EF|"G"G3 F ED|B, D3 B,2|
"D"A,2 D2 F2|A2 d2 f2|1 f3 g f2|"A"e4  :|2 "A"A2 c2 e2|"D"d4 ||
|: FG |"D" A3 F D2|d4 A2|"G"B3 c d2|"D"A F3 E2|
F3 E D2|"G"B,4 G,2|"A"A,6|A4 FE|"D"D2 F2 A2|"C"=c6|
"G"B3 c d2|"D"A F3 D2|A,2 D2 F2|A2 d2 f2|"A"A2 c2 e2|"D"d4 :|


